X:1
T:O'Connel's Daughter
M:C
L:1/8
R:Reel
S:Rev. Luke Donnellan – “Oriel Songs and Dances",
S:Journal of the County Louth Archaeological Society (vol. II, No. 2, 1909; No. 1)
Z:AK/Fiddler’s Companion
K:D
B|cded c2 cd|cded cAAB|cded cfed|cage eddg||
egga gage|cded cAAg|eaab abag|egag eddg|
cded c2 cd|cded cAAB|cded cfed|cage eddg||
egga gage|cded cAAf|edcB cfed|cage ed d2||

